!!!!SEGMENT: pl-kk--kk-i-40--003-003_guami-gioseffo--missa-in-me-transierunt-sanctus.krn
!!!cenid: 16xx:1287
!!!COM: Guami, Gioseffo
!!!COM-rismid: pe20000528
!!!CDT: 1542/01/27-1611
!!!CNT: Italian
!!!OTL: Missa In me transierunt – Sanctus
!!!PDT:
!!!AGN: Sacred; Mass
!!!SMS-siglum: PL-Kk
!!!SMS-shelfmark: Kk.I.40
!!!SMS-shelfwork: 003-003 M
!!!SMS-variant:
!!!SMS-altvar:
!!!NIFC-rismid: 1001154489
!!!URL-scan: http://repozytorium.nifc.pl/skany/pl-kk-nut--i-40
!!!ONB-nifc: UWAGA: części Mszy: 1. Kyrie, 2. Et in terra, 3. Sanctus, 4. Agnus Dei. Skan 0006-0007
**kern	**text
*I"Baſso Ripieno.	*
*clefF4	*
*k[]	*
*M2/1	*
*met(c|)	*
=1-	=1-
00r	.
=2-	=2-
.	.
=3-	=3-
0r	.
=4-	=4-
!LO:TX:t=P:problem:kreska pseudotaktowa	!
1r	.
*lig	*
1AA	San-
=5-	=5-
1A	.
*Xlig	*
1F	-ctus
=6-	=6-
!LO:TX:t=P:problem:kreska pseudotaktowa	!
1E	.
!LO:TX:t=P:problem:kreska pseudotaktowa	!
1r	.
=7-	=7-
*	*ij
1.A	San-
*2\right	*
2G\	.
=8-	=8-
1F	-ctus
*	*Xij
!LO:TX:t=P:problem:kreska pseudotaktowa	!
1C,<	.
=9-	=9-
!LO:TX:t=P:problem:kreska pseudotaktowa	!
1r	.
1A	Do-
=10-	=10-
2A\	-mi-
!LO:TX:t=P:problem:kreska pseudotaktowa	!
2AA/	-n(us)
2.D\	De-
4E\	.
=11-	=11-
2F\	.
4C/	.
!LO:TX:t=P:problem:kreska pseudotaktowa	!
4D/	.
4E\	.
4F\	.
!LO:TX:t=P:problem:kreska pseudotaktowa	!
2G\	-us
=12-	=12-
2C/	Sab-
1AA	-ba-
2A\	.
=13-	=13-
!LO:TX:t=P:problem:kreska pseudotaktowa	!
1D	-oth
0r	.
=14-	=14-
!LO:TX:t=P:problem:kreska pseudotaktowa	!
1r	.
=15-	=15-
1.A	Ple-
2A\	-ni
=16-	=16-
!LO:TX:t=P:problem:kreska pseudotaktowa	!
1F	sunt
1F	cae-
=17-	=17-
2F\	-li
2C/	et
0G	ter-
=18-	=18-
!LO:TX:t=P:problem:kreska pseudotaktowa	!
1D	-ra
!LO:LB:g=original	!
=19-	=19-
2r	.
1A	glo-
2A\	-ri-
=20-	=20-
!LO:TX:t=P:problem:kreska pseudotaktowa	!
1A	-a
1F	tu-
=21-	=21-
!LO:TX:t=P:problem:kreska pseudotaktowa	!
1E	-a
0r	.
=22-	=22-
2r	.
1A\	glo-
=23-	=23-
!LO:TX:t=P:problem:kreska pseudotaktowa	!
2G\	-ri-
2E\	-a
2.F\	.
=24-	=24-
4G\	.
1A	.
2G\	tu-
=25-	=25-
!LO:TX:t=P:problem:kreska pseudotaktowa	!
1A,<	-a
!LO:TX:t=P:problem:kreska pseudotaktowa	!
00r	.
=26-	=26-
.	.
=27-	=27-
1C	glo-
=28-	=28-
2C/	-ri-
!LO:TX:t=P:problem:kreska pseudotaktowa	!
2G\	-a
1A	tu-
=29-	=29-
!LO:TX:t=P:problem:podwójna kreska pseudotaktowa	!
0E;>	-a.
=30||-	=30||-
*M3/2	*
!LO:TX:t=P:problem:kreska pseudotaktowa	!
0.r	.
=31-	=31-
.	.
=32-	=32-
1AA	O-
!LO:TX:t=P:problem:kreska pseudotaktowa	!
2C/	-san-
=33-	=33-
2AA/	-na
2GG/	in
!LO:TX:t=P:problem:kreska pseudotaktowa	!
2G\	ex-
=34-	=34-
1D	-cel-
2AA,</	-ſis
=35-	=35-
*	*ij
2D\	O-
!LO:TX:t=P:problem:kreska pseudotaktowa	!
1C	-san-
=36-	=36-
1GG	-na
!LO:TX:t=P:problem:kreska pseudotaktowa	!
2D/	in
=37-	=37-
2BB/	ex-
1AA	-cel-
=38-	=38-
!LO:TX:t=P:problem:kreska pseudotaktowa	!
1.E	-ſis
*	*Xij
!LO:LB:g=original	!
=39-	=39-
2AA/	O-
2D\	-san-
!LO:TX:t=P:problem:kreska pseudotaktowa	!
2C/	-na
=40-	=40-
1F	in
!LO:TX:t=P:problem:kreska pseudotaktowa	!
2C/	ex-
=41-	=41-
1D	-cel-
!LO:TX:t=P:problem:kreska pseudotaktowa	!
2AA/	-ſis
=42-	=42-
!LO:TX:t=P:problem:kreska pseudotaktowa	!
0.r	.
=43-	=43-
.	.
=44-	=44-
*	*ij
2E\	O-
2E\	-san-
!LO:TX:t=P:problem:kreska pseudotaktowa	!
2F\	-na
=45-	=45-
1D	in
!LO:TX:t=P:problem:kreska pseudotaktowa	!
2A\	ex-
=46-	=46-
1G	-cel-
!LO:TX:t=P:problem:kreska pseudotaktowa	!
2F\	-ſis
*	*Xij
=47-	=47-
1.r	.
=48-	=48-
2C/	O-
2C/	-san-
!LO:TX:t=P:problem:kreska pseudotaktowa	!
2E\	-na
=49-	=49-
1D	in
!LO:TX:t=P:problem:kreska pseudotaktowa	!
2C/	ex-
=50-	=50-
1A	-cel-
!LO:TX:t=P:problem:kreska pseudotaktowa	!
2AA/	-ſis
=51-	=51-
1.r	.
=52-	=52-
*	*ij
2F\	O-
2F\	-san-
!LO:TX:t=P:problem:kreska pseudotaktowa	!
2D\	-na
=53-	=53-
1F	in
2F\	ex-
=54-	=54-
1E	-cel-
!LO:TX:t=P:problem:kreska pseudotaktowa	!
2AA/	-ſis
*	*Xij
=55-	=55-
2A\	O-
2A\	-san-
2D/	-na
=56-	=56-
2.C/	in
4BB/	.
2AA/	ex-
=57-	=57-
2G#X\	-cel-
1A	.
=58-	=58-
!LO:N:vis=0	!
1.E;>	-ſis.
!LO:LB:g=original	!
=59-	=59-
*M2/1	*
*met(c|)	*
00r	.
=60-	=60-
.	.
=61-	=61-
!LO:TX:t=P:problem:kreska pseudotaktowa	!
1r	.
1.E	Be-
=62-	=62-
2AA/	-ne-
1E	-di-
=63-	=63-
2D\	-ct(us)
2D\	qui
1C	ve-
=64-	=64-
!LO:TX:t=P:problem:kreska pseudotaktowa	!
1AA	-nit
2r	.
*	*ij
2D/	Be-
=65-	=65-
1BB-X	-ne-
!LO:TX:t=P:problem:kreska pseudotaktowa	!
1AA	-di-
=66-	=66-
1D	-ct(us)
2F\	qui
2E\	ve-
=67-	=67-
!LO:TX:t=P:problem:kreska pseudotaktowa	!
1F	-nit
*	*Xij
2r	.
2E\	qui
=68-	=68-
1A	ve-
2G\ny	-nit
!LO:TX:t=P:problem:kreska pseudotaktowa	!
2G\	in
=69-	=69-
2F\	N(o-
2D\	-mi)-
1F	-ne
=70-	=70-
2.E\	D(o-
4E\	-mi)-
!LO:TX:t=P:problem:kreska pseudotaktowa	!
1AA	-ni
=71-	=71-
0r	.
=72-	=72-
2r	.
2D/	in
2C/	N(o-
2AA/	-mi)-
=73-	=73-
!LO:TX:t=P:problem:kreska pseudotaktowa	!
1C	-ne
1.D	Do-
=74-	=74-
2D\	-mi-
!LO:TX:t=P:problem:kreska pseudotaktowa	!
1AA	-ni
=75-	=75-
2r	.
2A\	in
2E\	N(o-
2E\	-mi)-
=76-	=76-
!LO:TX:t=P:problem:kreska pseudotaktowa	!
1AA	-ne
2.D/	Do-
4C/	.
=77-	=77-
2BB/ny	.
2BB/	-mi-
!LO:TX:t=P:problem:kreska pseudotaktowa	!
1AA	-ni
=78-	=78-
2rAA	.
*	*ij
2AA/	in
2D\	N(o-
!LO:TX:t=P:problem:kreska pseudotaktowa	!
2D\	-mi)-
=79-	=79-
2C/	-ne
1AA	Do-
2A\	-mi-
=80-	=80-
!LO:TX:b:i:t=Osanna da Capo.	!
!LO:TX:t=P:problem:podwójna kreska pseudotaktowa	!
0E;>	-ni
*	*Xij
=||	=||
*-	*-
!!!RDF**kern: > = above
!!!RDF**kern: < = below
!!!EED: Antoni Szymański
!!!EST: 2021-07-31
!!!ENC:Berenika Jozajtis
!!!END:2021-07-04
